**kern	**kern
*staff2	*staff1
*clefF4	*clefG2
*k[]	*k[]
*M2/4	*M2/4
*C:	*C:
=-	=-
8r	8g' 8ee'
=266	=266
8CL	4g' 4ee'
8c	.
8c	8r
8cJ	8e' 8cc'
=267	=267
8CL	4a' 4ff'
8c	.
8c	8r
8cJ	8g' 8ee'
=268	=268
8gL	4ee
8c	.
8f	8.ddL
8cJ	.
.	32ccLL
.	32ddJJJ
=269	=269
8eL	4cc
8c	.
8c	8r
8cJ	8cc
=270	=270
8BL	8dd
8G	8r
8c	8.eeL
8GJ	.
.	32ddLL
.	32eeJJJ
=271	=271
8AL	8ff
8c	8r
8G	8.eeL
8cJ	.
.	32ddLL
.	32eeJJJ
=272	=272
8FL	8dd
8c	8r
8F#	8dd
8cJ	8r
=273	=273
8GL	4dd
8B	.
8d	8r
=	=
*-	*-
